X: 4994
T: Brendan Tonra's
R: jig
M: 6/8
K: Dmajor
|:A|B3 dBA|AGE DEG|BAB cBc|deB dBA|
B3 dBA|AGE DEG|BAB cBc|dBA G2:|
|:A|B2G GFG|AGF EFG|B2G GFG|deB dBA|
B2G GFG|AGF EFG|BdB cAF|GBA G2:|

